assets/symbols/mulberry/lamp.svg

<svg height="850.89" viewBox="0 0 850.89 850.89" width="850.89" xmlns="http://www.w3.org/2000/svg"><path d="m568.64 40.75 114.15 342.25h-488.41l114.05-342.25h129.5z" fill="#fff400"/><path d="m575.02 785.71c6.971 12.34 0 19.31 0 19.31l-.8-2.789-8.37-27.721c4.36 4.11 7.28 7.85 9.17 11.2z" fill="#fff"/><path d="m447.81 383.8 94.5 312.851c-12.949 29.409-18.229 50.34 2 62.31 9.57 5.68 16.551 10.86 21.54 15.55l8.37 27.721-4.68 1.39h-261.81l-2.59-.79 8.08-26.82c4.98-4.689 11.96-9.88 21.53-15.55 20.34-11.97 15.05-32.91 2.1-62.42l94.51-312.85v-2.192h16.449v.8z" fill="#f73900"/><path d="m447.81 383.8s144.75 17.55 144.75 142.57c0 72.58-32.5 129.6-50.25 170.28zm-110.96 314.24c-17.85-40.68-50.35-97.7-50.35-170.17 0-125.13 144.86-142.68 144.86-142.68z" fill="#f73900"/><path d="m313.22 776.01-8.08 26.82-1.09 3.68s-11.27-11.26 9.17-30.5z" fill="#fff"/><g fill="none"><g stroke="#000"><path d="m307.73 803.62h261.81" stroke-linecap="round" stroke-linejoin="round" stroke-width="43.883"/><path d="m431.36 385.19s-144.86 17.55-144.86 142.68c0 72.47 32.5 129.49 50.35 170.17 12.95 29.51 18.24 50.45-2.1 62.42-9.57 5.67-16.55 10.86-21.53 15.55-20.44 19.24-9.17 30.5-9.17 30.5m143.76-422.71s144.75 17.55 144.75 142.57c0 72.58-32.5 129.6-50.25 170.28-12.949 29.409-18.229 50.34 2 62.31 9.57 5.68 16.551 10.86 21.54 15.55 4.36 4.11 7.28 7.851 9.17 11.2 6.971 12.34 0 19.31 0 19.31" stroke-width="26.329"/><path d="m232.96 383h449.83l-114.15-342.25h-260.21l-114.05 342.25z" stroke-linecap="round" stroke-linejoin="round" stroke-width="35.106"/><path d="m575.02 785.71s51.23-41.46 123.23-41.46 92.98 29.52 102 52" stroke-width="17"/></g><path d="m.25.25h850.394v850.394h-850.394z"/></g></svg>

<svg xmlns="http://www.w3.org/2000/svg" width="850.89" height="850.89" viewBox="0 0 850.89 850.89" overflow="visible"><path fill="#fff400" d="M568.64 40.75L682.79 383H194.38L308.43 40.75h129.5z"/><path d="M575.02 785.71c6.971 12.34 0 19.31 0 19.31l-.8-2.789-8.37-27.721c4.36 4.11 7.28 7.85 9.17 11.2z" fill="#fff"/><path d="M447.81 383.8l94.5 312.851c-12.949 29.409-18.229 50.34 2 62.31 9.57 5.68 16.551 10.86 21.54 15.55l8.37 27.721-4.68 1.39H307.73l-2.59-.79 8.08-26.82c4.98-4.689 11.96-9.88 21.53-15.55 20.34-11.97 15.05-32.91 2.1-62.42l94.51-312.85V383h16.449v.8z" fill="#f73900"/><path d="M447.81 383.8s144.75 17.55 144.75 142.57c0 72.58-32.5 129.6-50.25 170.28l-94.5-312.85zM336.85 698.04c-17.85-40.68-50.35-97.7-50.35-170.17 0-125.13 144.86-142.68 144.86-142.68l-94.51 312.85z" fill="#f73900"/><path d="M313.22 776.01l-8.08 26.82-1.09 3.68s-11.27-11.26 9.17-30.5z" fill="#fff"/><g fill="none" stroke="#000"><path stroke-width="43.883" stroke-linecap="round" stroke-linejoin="round" d="M307.73 803.62h261.81"/><path d="M431.36 385.19S286.5 402.74 286.5 527.87c0 72.47 32.5 129.49 50.35 170.17 12.95 29.51 18.24 50.45-2.1 62.42-9.57 5.67-16.55 10.86-21.53 15.55-20.44 19.24-9.17 30.5-9.17 30.5M447.81 383.8s144.75 17.55 144.75 142.57c0 72.58-32.5 129.6-50.25 170.28-12.949 29.409-18.229 50.34 2 62.31 9.57 5.68 16.551 10.86 21.54 15.55 4.36 4.11 7.28 7.851 9.17 11.2 6.971 12.34 0 19.31 0 19.31" stroke-width="26.329"/><path stroke-width="35.106" stroke-linecap="round" stroke-linejoin="round" d="M232.96 383h449.83L568.64 40.75H308.43L194.38 383h38.58"/><path d="M575.02 785.71s51.23-41.46 123.23-41.46 92.98 29.52 102 52" stroke-width="17"/></g><path fill="none" d="M.25.25h850.394v850.394H.25z"/></svg>
